symbolic/32x32/mimetypes/application-x-homebank.svg

<svg xmlns="http://www.w3.org/2000/svg" width="32" height="32" version="1.1">
 <path style="opacity:0.2" d="M 6.375,3 C 5.61325,3 5,3.6244 5,4.4 V 29.6 C 5,30.3756 5.61325,31 6.375,31 h 19.25 C 26.38675,31 27,30.3756 27,29.6 V 11 L 20,10 19,3 Z"/>
 <path style="fill:#f4981b" d="M 6.375,2 C 5.61325,2 5,2.6244 5,3.4 V 28.6 C 5,29.3756 5.61325,30 6.375,30 h 19.25 C 26.38675,30 27,29.3756 27,28.6 V 10 L 20,9 19,2 Z"/>
 <path style="opacity:0.2" d="M 27,11 19,3 V 9.6666667 C 19,10.405333 19.594667,11 20.333333,11 Z"/>
 <path style="fill:#f7b65d" d="M 27,10 19,2 V 8.6666667 C 19,9.4053333 19.594667,10 20.333333,10 Z"/>
 <path style="opacity:0.1" d="M 16,13.998047 9,21 h 2 v 7 h 10 v -6 -1 h 2 l -2,-2 v -4 h -2 v 1.998047 z"/>
 <path style="fill:#3f3f3f" d="M 16,12.998047 9,20 h 2 v 7 h 10 v -6 -1 h 2 l -2,-2 v -4 h -2 v 1.998047 z"/>
 <path style="opacity:0.2;fill:#ffffff" d="M 6.375,2 C 5.61325,2 5,2.6247906 5,3.4003906 v 1 C 5,3.6247906 5.61325,3 6.375,3 H 19 V 2 Z"/>
</svg>

<svg xmlns="http://www.w3.org/2000/svg" width="32" height="32"><path style="opacity:.2" d="M6.375 3C5.613 3 5 3.624 5 4.4v25.2c0 .776.613 1.4 1.375 1.4h19.25c.762 0 1.375-.624 1.375-1.4V11l-7-1-1-7z"/><path style="fill:#f4981b" d="M6.375 2C5.613 2 5 2.624 5 3.4v25.2c0 .776.613 1.4 1.375 1.4h19.25c.762 0 1.375-.624 1.375-1.4V10l-7-1-1-7z"/><path style="opacity:.2" d="m27 11-8-8v6.667A1.33 1.33 0 0 0 20.333 11z"/><path style="fill:#f7b65d" d="m27 10-8-8v6.667A1.33 1.33 0 0 0 20.333 10z"/><path style="opacity:.1" d="M16 13.998 9 21h2v7h10v-7h2l-2-2v-4h-2v1.998z"/><path style="fill:#3f3f3f" d="M16 12.998 9 20h2v7h10v-7h2l-2-2v-4h-2v1.998z"/><path style="opacity:.2;fill:#fff" d="M6.375 2C5.613 2 5 2.625 5 3.4v1C5 3.625 5.613 3 6.375 3H19V2z"/></svg>
